X: 6500
T: Cat Rambles To The Child's Saucepan, The
R: slide
M: 12/8
K: Cmajor
|:G|c2d e2d cBc ~A3|f2G BAG d2G BAG|
c2d e2d cBc AcA|f2G BAG ~c3 c2:|
|:G|c2e ~g3 age ~g2e|d2G BAG d2G BAG|
c2e ~g3 age ~g2e|d2G BAG ~c3 c2:|

